packages/ui-icons/svg/Line/calendar-days.svg

<svg viewBox="0 0 1920 1920" version="1.1" xmlns="http://www.w3.org/2000/svg">
    <path d="M1411.8238,9.99999997e-05 C1442.9948,9.99999997e-05 1468.2938,25.2991 1468.2938,56.4711 L1468.2938,56.4711 L1468.2938,112.9411 L1637.7058,112.9411 C1731.1088,112.9411 1807.1178,188.9511 1807.1178,282.3531 L1807.1178,282.3531 L1807.1178,1920.0001 L112.9998,1920.0001 L112.9998,282.3531 C112.9998,188.9511 189.0088,112.9411 282.4118,112.9411 L282.4118,112.9411 L451.8228,112.9411 L451.8228,56.4711 C451.8228,25.2991 477.1228,9.99999997e-05 508.2938,9.99999997e-05 C539.4658,9.99999997e-05 564.7648,25.2991 564.7648,56.4711 L564.7648,56.4711 L564.7648,112.9411 L1355.3528,112.9411 L1355.3528,56.4711 C1355.3528,25.2991 1380.6518,9.99999997e-05 1411.8238,9.99999997e-05 Z M1694.1758,564.7051 L225.9418,564.7051 L225.9418,1807.0581 L1694.1758,1807.0581 L1694.1758,564.7051 Z M451.8228,225.8821 L282.4118,225.8821 C251.3528,225.8821 225.9418,251.1811 225.9418,282.3531 L225.9418,282.3531 L225.9418,451.7651 L1694.1758,451.7651 L1694.1758,282.3531 C1694.1758,251.1811 1668.7648,225.8821 1637.7058,225.8821 L1637.7058,225.8821 L1468.2938,225.8821 L1468.2938,282.3531 C1468.2938,313.5251 1442.9948,338.8241 1411.8238,338.8241 C1380.6518,338.8241 1355.3528,313.5251 1355.3528,282.3531 L1355.3528,282.3531 L1355.3528,225.8821 L564.7648,225.8821 L564.7648,282.3531 C564.7648,313.5251 539.4658,338.8241 508.2938,338.8241 C477.1228,338.8241 451.8228,313.5251 451.8228,282.3531 L451.8228,282.3531 L451.8228,225.8821 Z M959.5054,1416.6211 C877.1714,1416.6211 817.9904,1382.1741 765.1334,1320.7341 L674.3294,1404.0851 C736.5594,1479.0771 828.6064,1532.1601 957.4724,1532.1601 C1111.7504,1532.1601 1216.3344,1435.3691 1216.3344,1300.9701 L1216.3344,1298.9361 C1216.3344,1164.5361 1110.7334,1108.2921 998.8094,1094.7381 L1204.7014,886.4751 L1204.7014,790.5881 L715.5524,790.5881 L715.5524,902.0601 L1035.6284,902.0601 L835.9474,1111.4541 L857.0674,1191.6421 L917.3784,1191.6421 C1020.8324,1191.6421 1087.4674,1232.1881 1087.4674,1304.0181 L1087.4674,1306.1651 C1087.4674,1372.8001 1032.4654,1416.6211 959.5054,1416.6211" stroke="none" stroke-width="1" fill-rule="evenodd"/>
</svg>

<svg viewBox="0 0 1920 1920" xmlns="http://www.w3.org/2000/svg">
    <path d="M1411.824 0c31.17 0 56.47 25.3 56.47 56.471v56.47h169.412c93.403 0 169.412 76.01 169.412 169.412V1920H113V282.353c0-93.402 76.009-169.412 169.412-169.412h169.41v-56.47c0-31.172 25.3-56.47 56.472-56.47s56.47 25.298 56.47 56.47v56.47h790.589v-56.47c0-31.172 25.299-56.47 56.47-56.47Zm282.352 564.705H225.942v1242.353h1468.234V564.705ZM451.823 225.882H282.412c-31.06 0-56.47 25.3-56.47 56.471v169.412h1468.234V282.353c0-31.172-25.411-56.47-56.47-56.47h-169.412v56.47c0 31.172-25.3 56.471-56.47 56.471-31.172 0-56.471-25.299-56.471-56.47v-56.472H564.765v56.471c0 31.172-25.3 56.471-56.471 56.471-31.171 0-56.471-25.299-56.471-56.47v-56.472Zm507.682 1190.74c-82.334 0-141.515-34.448-194.372-95.888l-90.804 83.351c62.23 74.992 154.277 128.075 283.143 128.075 154.278 0 258.862-96.79 258.862-231.19v-2.034c0-134.4-105.6-190.644-217.525-204.198l205.892-208.263v-95.887H715.552V902.06h320.076l-199.68 209.394 21.12 80.188h60.31c103.454 0 170.09 40.546 170.09 112.376v2.147c0 66.635-55.003 110.456-127.963 110.456" fill-rule="evenodd"/>
</svg>
